X: 1132
T: BASKET COTILLON
B: Oliver Ditson "The Boston Collection of Instrumental Music" 1910 p.113 #2
F: http://conquest.imslp.info/files/imglnks/usimg/8/8f/IMSLP175643-PMLP309456-bostoncollection00bost_bw.pdf
%: 2012 John Chambers <jc:trillian.mit.edu>
M: 2/4
L: 1/16
K: D
[|\
f2fe f2g2 | b2a2f4 | a2g2e4 | g2f2d4 |\
f2fe f2g2 | b2a2f4 | a2g2 e2c2 | egfe d2z2 ]
c2cB c2d2 | f2e2c4 | e2d2B4 | d2c2A4 |\
c2cB c2d2 | f2e2c4 | e2d2 B2^G2 | AEcB A2z2 |]
%%begintext align
Forward two, cross over, chassez de chassez, cross to place.
Four ladies join hands, half round and retain position.
Four gentlemen forward, join hands, half round and back.
The whole form a wreath. Balance, and turn partners to places.
%%endtext

%%sep 1 1 500
%%sep 1 1 500
